!!!COM:	Martini, Johannes
!!!CDT:	~1440///-~1497//
!!!OPR:	Missa In feuers hitz
!!!ONM:	5
!!!OTL:	Agnus Dei
!!!AGN:	Mass; Agnus Dei
!!!SCT:	Mar1007e
!!!SCA:	Mar1007e
!!!voices:	3
!!!voices-OPR:	3
**kern	**kern	**kern
*staff3	*staff2	*staff1
*Ivox	*Ivox	*Ivox
*I"Contra	*I"Tenor	*I"Superius
*I'C	*I'T	*I'S
*>[A,A]	*>[A,A]	*>[A,A]
*>A	*>A	*>A
*clefGv2	*clefGv2	*clefG2
*k[]	*k[]	*k[]
*M3/1	*M3/1	*M3/1
*met(O)	*met(O)	*met(O)
!!section: Agnus Dei I, II
!!!OMD: Agnus Dei I, II
=1-	=1-	=1-
0g	[0.c	1cc
.	.	1.cc
[1e	.	.
.	.	2b\
=2	=2	=2
2e\]	1c]	2.a/
2c\	.	.
.	.	4g/
2.c\	1e	1g
4B\	.	.
1A	1f	1a
=3	=3	=3
1G	1g	1b
2r	2f\	2a/
1g	2e\	2cc\
.	1d	2dd\
2f\	.	2ff\
=4	=4	=4
2g\	1.c	1.ee
2.a\	.	.
4g\	.	.
1g	2B\	2dd\
.	1A	1cc
2f#i\	.	.
=5	=5	=5
2g\	1G	2b\
1e	.	1g
.	1c	.
4d\	.	2a/
4c\	.	.
2B\	2d\	2b\
2c\	2e\	2g/
=6	=6	=6
1G	2d\	1b
.	1g	.
1d	.	1a
.	2f#i\	.
1G	1g	2r
.	.	[2dd\
=7	=7	=7
2r	2f\	4dd\]
.	.	4cc\
1g	2e\	2.ee\
.	1c	.
.	.	4dd\
2a\	.	2.cc\
2.f\	1d	.
.	.	4b\
.	.	4b\
4e\	.	4a/
=8	=8	=8
1g	[0.c	2cc\
.	.	1g
1r	.	.
.	.	2a/
1g	.	2g/
.	.	[2e/
=9	=9	=9
2a\	0.c]	4e/]
.	.	4f/
2g\	.	2g/
2.e\	.	2c/
.	.	2r
4f\	.	.
2g\	.	2.cc\
2c\	.	.
.	.	8b/L
.	.	8a/J
=10	=10	=10
2.c\	0.r	2g/
.	.	2a/
8B/L	.	.
8A/J	.	.
2.G/	.	2b\
.	.	2.g/
4A/	.	.
2B\	.	.
.	.	4f/
[2c\	.	2e/
=11	=11	=11
2c\]	1r	1d
2B\	.	.
2c\	1r	1c
1e	.	.
.	1c	2e/
2d\	.	2f/
=12	=12	=12
2.c\	1e	1g
4B\	.	.
1A	1c	1a
1c	[1e	2g/
.	.	[2cc\
=13	=13	=13
2A/	1e]	4cc\]
.	.	4b\
2c\	.	2cc\
2B-\	0f	2dd\
2c\	.	4cc\
.	.	4b\
1d	.	1a
=14	=14	=14
1G	1g	1g
2r	0d	2f/
1f	.	1a
2d\	.	2b\
=15	=15	=15
2e\	0c	2a/
2f\	.	4g/
.	.	4f/
2g\	.	2e/
2e\	.	2.a/
2.f\	1d	.
.	.	4g/
.	.	[2b\
4e\	.	.
=16	=16	=16
1.d	1G	4b\]
.	.	4a/
.	.	1g
.	0A	.
2c\	.	2f#i/
2.c\	.	2.f#i/
4B\	.	4e/
=17	=17	=17
1d	1G	1g
2f\	2r	2a/
4e\	2G/	2g/
4d\	.	.
2c\	2A/	2cc\
[2g\	2B\	2dd\
=18	=18	=18
4g\]	1c	1ee
4f\	.	.
2.e\	.	.
.	1e	1cc
4d\	.	.
1c	.	.
.	1d	1ff
2B\	.	.
=19	=19	=19
2c\	1c	2.ee\
2A/	.	.
.	.	8dd\L
.	.	8cc\J
1G	1g	2.b\
.	.	4cc\
2r	2f\	2dd\
2c\	2e\	2cc\
=20	=20	=20
2d\	2d\	2ff\
2G/	2g\	4ee\
.	.	2dd\
2c\	2e\	.
.	.	4cc\
2F/	2f\	1cc
1G	1d	.
.	.	2b\
=21	=21	=21
0.gl	0.cl	0.ccl
!!LO:TX:i:Y=40:rj:t=[Agnus Dei II ut supra]
=||	=||	=||
*-	*-	*-
!!!RDF**kern: l=long note in original notation
!!!RDF**kern: i=editorial accidental
!!!ENC:	Chris Gage 10-02-2014
!!!END:	2015/03/07/
!!!EED:	Jesse Rodin
!!!EEV:	2015/03/09/
!!!ONB:	Translated from MusicXML and edited on 2015/03/09/ by Craig Sapp
!!muse2ps: T^@{OPR}^u^@{ONM}{. }@{OTL}^C^@{COM}^i2I150v95,95,150Q16
